X: 1
T: Rabbit in the Grass
M: 2/4
L: 1/16
K: G
BA |\
"G"GABd g2ga | gdef gedB | GABd g2d2 | "D7"cBAG FDEF |
"G"GABd g2ga | gdef gfga | baba "C"gage | "D7"dcBA "G"G2 :|
|: D2 |\
"G"G,B,DF G2G2 | BdAF G2G2 | G,B,DF G2GA | "C"GEDE "D"DCB,A, |
"G"G,B,DF G2G2 | BdAF G2G2 | "C"gage "G"dBGA | "D7"BdAF "G"G2 :|
